lib/svgs/wechat.svg

<?xml version="1.0" encoding="UTF-8" standalone="no"?>
<svg width="20px" height="20px" viewBox="0 0 20 20" version="1.1" xmlns="http://www.w3.org/2000/svg" xmlns:xlink="http://www.w3.org/1999/xlink">
    <defs></defs>
    <g id="Icons" stroke="none" stroke-width="1" fill="none" fill-rule="evenodd">
        <g id="Web" transform="translate(-193.000000, -1036.000000)" fill="#000000">
            <g id="brand/wechat" transform="translate(193.000000, 1036.000000)">
                <path d="M11.31248,8.16112593 C11.78128,8.00934289 12.28128,7.91821085 12.81248,7.91821085 C13,7.91821085 13.18752,7.94853636 13.37504,7.97886187 C12.87504,5.70087208 10.43744,4 7.65632,4 C4.5312,4 2,6.12605122 2,8.79905016 C2,10.3481392 2.84368,11.6541576 4.24992,12.626129 L3.68752,14.3271566 L5.65632,13.3551852 C6.40624,13.4766428 6.9688,13.6285813 7.65632,13.6285813 C7.84368,13.6285813 8.0312,13.6285813 8.18752,13.5981003 C8.09376,13.2337277 8.0312,12.8387186 8.0312,12.4135394 C8.0312,11.8972282 8.12496,11.3809171 8.28128,10.9252569 C8.78128,9.61908294 9.87504,8.58646059 11.31248,8.16112593 L11.31248,8.16112593 L11.31248,8.16112593 Z M5.65632,7.7662723 C5.28128,7.7662723 4.93744,7.46255069 4.93744,7.06769706 C4.93744,6.70316893 5.28128,6.39944732 5.65632,6.39944732 C6.09376,6.39944732 6.40624,6.70316893 6.40624,7.06769706 C6.40624,7.46255069 6.09376,7.7662723 5.65632,7.7662723 L5.65632,7.7662723 L5.65632,7.7662723 Z M9.68752,6.36912182 C10.09376,6.36912182 10.40624,6.70316893 10.40624,7.09802256 C10.40624,7.49303171 10.09376,7.79675332 9.68752,7.79675332 C9.28128,7.79675332 8.93744,7.49303171 8.93744,7.09802256 C8.93744,6.70316893 9.28128,6.36912182 9.68752,6.36912182 L9.68752,6.36912182 L9.68752,6.36912182 Z M18,12.3528884 C18,10.1658751 15.90624,8.37387102 13.43744,8.25225796 C13.34368,8.25225796 13.24992,8.22193246 13.18752,8.22193246 C10.5,8.22193246 8.37504,10.0747431 8.37504,12.3528884 C8.37504,13.1121147 8.59376,13.8106899 9,14.4182886 C9.84368,15.633175 11.37504,16.4533633 13.18752,16.4533633 C13.75008,16.4533633 14.34368,16.3014248 14.90624,16.1496417 L16.43744,17 L16.0312,15.6028495 C17.15632,14.7523357 18,13.6285813 18,12.3528884 L18,12.3528884 L18,12.3528884 Z M11.65632,11.6541576 C11.34368,11.6541576 11.09376,11.4112426 11.09376,11.0770399 C11.09376,10.7733183 11.34368,10.5304033 11.65632,10.5304033 C11.9688,10.5304033 12.21872,10.7733183 12.21872,11.0770399 C12.21872,11.4112426 11.9688,11.6541576 11.65632,11.6541576 L11.65632,11.6541576 L11.65632,11.6541576 Z M14.75008,11.6541576 C14.43744,11.6541576 14.18752,11.4112426 14.18752,11.0770399 C14.18752,10.7733183 14.43744,10.5304033 14.75008,10.5304033 C15.09376,10.5304033 15.34368,10.7733183 15.34368,11.0770399 C15.34368,11.4112426 15.09376,11.6541576 14.75008,11.6541576 L14.75008,11.6541576 L14.75008,11.6541576 Z" id="Shape"></path>
            </g>
        </g>
    </g>
</svg>

<svg xmlns="http://www.w3.org/2000/svg" viewBox="0 0 20 20">
    <path fill="#000" fill-rule="evenodd" d="M11.312 8.161a4.845 4.845 0 0 1 1.5-.243c.188 0 .376.03.563.06C12.875 5.702 10.437 4 7.656 4 4.531 4 2 6.126 2 8.8c0 1.548.844 2.854 2.25 3.826l-.562 1.701 1.968-.972c.75.122 1.313.274 2 .274.188 0 .375 0 .532-.03a4.653 4.653 0 0 1 .094-2.673 4.613 4.613 0 0 1 3.03-2.765zm-5.656-.395a.717.717 0 0 1-.719-.698c0-.365.344-.669.72-.669.437 0 .75.304.75.669 0 .395-.313.698-.75.698zM9.688 6.37c.406 0 .718.334.718.729a.697.697 0 0 1-.718.699c-.407 0-.75-.304-.75-.699a.75.75 0 0 1 .75-.729zM18 12.353c0-2.187-2.094-3.98-4.563-4.1-.093 0-.187-.031-.25-.031-2.687 0-4.812 1.853-4.812 4.13 0 .76.219 1.459.625 2.066.844 1.215 2.375 2.035 4.188 2.035a6.82 6.82 0 0 0 1.718-.303l1.531.85-.406-1.397c1.125-.85 1.969-1.974 1.969-3.25zm-6.344-.699a.56.56 0 0 1-.562-.577c0-.304.25-.547.562-.547.313 0 .563.243.563.547a.56.56 0 0 1-.563.577zm3.094 0a.56.56 0 0 1-.562-.577c0-.304.25-.547.562-.547.344 0 .594.243.594.547 0 .334-.25.577-.594.577z"/>
</svg>
